X: 192
T: Miss Ann Hay's Reel
C: by John Pringle
B: John Pringle "Collection of Reels Strathspeys & Jigs", 1801 p.19#2
Z: 2011 John Chambers <jc:trillian.mit.edu>
R: reel
M: C|
L: 1/8
K: D
V: 1
B | AFGE Dddc | BAGF Eeef | gefd (c/d/e) Ac | dABG FDD :|
e | efdc BcdB | edcB ABcA | dfcA BdFd | Adec ~d2df |
    geeg fddc | (B/c/d) ed cAAG | FDDd cAAg | fdec d2d |]
V: 2 clef=bass middle=d
z | d2e2 f2d2  | g2b2  a2A2 | e2d2 A2c2 | d2G2 A2d :|
z | A2a2 A2^g2 | a2A2  c2a2 | d2a2 g2d2 | A2A2 d2D2 |
    A2c2 d2D2  | G2^G2 A2A2 | D2d2 A2a2 | d2A2 D2d |]

%%sep 2 1 500

